X:641
T:Romance de La Nia Clara (MQ 101)
R:Romance
C:Tradicional
S:Msica Tradicional Asturiana, (C) Tello & Tito. Asturies, 2001.
S:http://pagina.de/MusTradAst <telloytito@asturies.org>
N:Este romance es muy popular en Quirs y Teberga.
N:Siendo yo un cro era muy frecuente escucharlo cantar en las fiestas y bailes de la zona.
N:Solan incluirlo los gaiteros como una mudanza ms de la jota que se tocaba all.
A:Asturies
Z:Manolo Quirs 101
M:2/4
L:1/8
Q:1/4=100
K:C
CE
|G3 G|G3 G|AA AG|F3 G|A3 A|AG GF|E3 F|G3 G|GF FE|DE FG|F2 E2-|E2 CE|
G3 G|G3 G|AA AG|F3 G|A3 A|AG GF|E3 F|G3 G|GF FE|DE FG|F2 E2-|E2 ED|
|: C3 D|E3 E|FF FE|D3 E|F3 F|FE ED|
C3 D|E3 E|ED DC|B,C DE|D2 C2-|[1 C2 ED :|[2 C3 E|
|G2 FE|F3 F|A2 GF|G2 E2|G2 FE|FF FG|AA GF|E3 E|
G2 FE|F3 F|A2 GF|G2 E2|G2 FE|FF FG|AA GF|E4||
